X: 9774
T: Delvinside
R: strathspey
M: 4/4
K: Amixolydian
|:Aafd eAec|Aafd gGdB|Aafd eA (3efg|(3agf ge dGdB:|
|:gAeA gAea|gAeA gGdB|gAeA gA (3efg|(3agf ge dGdB:|
|:Aafd eAec|Aafd gGdB|Aafd eA (3efg|(3agf ge dGdB:|
|:aAeA aAdB|aAeA gGdB|ABcd eA (3efg|(3fga ef gGdB:|

